X: 1
T:Old Copperplate, The
S:taught by Brendan Mulvihill, 1993 Milwaukee Summer School
N:Cf. Bulmer \& Sharpley vol. 1 or The Irish Fiddle Book (Cranitch). Transcribed by Alan Ng (1995)
Z: id:ng-reels-4 transcribed by Alan Ng agng@students.wisc.edu
R:reel
M:C|
E:14
K:ADor
\medskip
B|~A2 EA cAAe|aged cAAB|G2 DG BGBd|gedc BGGB|~A2 EA cAAe|aged cdBc|ABcd efge|\
aged cA A:|*
|:e|ageg a2 bg|aged cAAa|gfef g2 af|gedc BGGe|ageg a2 bg|aged cdBc|\
ABcd efge|aged cAA:|**
